symbols/web/assignment_turned_in/materialsymbolssharp/assignment_turned_in_wght300gradN25fill1_48px.svg

<svg xmlns="http://www.w3.org/2000/svg" height="48" width="48"><path d="M21.15 30.95 34.3 17.8l-1.6-1.6-11.55 11.55-5.95-5.9-1.55 1.55Zm-14 9.9V7.15h13.1q-.15-1.6.975-2.8Q22.35 3.15 24 3.15q1.7 0 2.8 1.2 1.1 1.2.95 2.8h13.1v33.7ZM24 8.55q.7 0 1.2-.5t.5-1.2q0-.7-.5-1.2t-1.2-.5q-.7 0-1.175.5-.475.5-.475 1.2t.475 1.2q.475.5 1.175.5Z"/></svg>

<svg xmlns="http://www.w3.org/2000/svg" height="48" width="48"><path d="M21.15 30.95 34.3 17.8 32.7 16.2 21.15 27.75 15.2 21.85 13.65 23.4ZM7.15 40.85V7.15H19.6Q19.8 5.5 21.05 4.325Q22.3 3.15 24.05 3.15Q25.8 3.15 27.025 4.325Q28.25 5.5 28.4 7.15H40.85V40.85ZM24 8.6Q24.65 8.6 25.175 8.1Q25.7 7.6 25.7 6.9Q25.7 6.25 25.175 5.75Q24.65 5.25 24 5.25Q23.3 5.25 22.825 5.75Q22.35 6.25 22.35 6.9Q22.35 7.6 22.825 8.1Q23.3 8.6 24 8.6Z"/></svg>
